public/cards/5-H.svg

<?xml version="1.0" encoding="UTF-8"?>
<svg width="360px" height="540px" viewBox="0 0 360 540" version="1.1" xmlns="http://www.w3.org/2000/svg" xmlns:xlink="http://www.w3.org/1999/xlink">
    <!-- Generator: Sketch 55.2 (78181) - https://sketchapp.com -->
    <title>5-H</title>
    <desc>Created with Sketch.</desc>
    <g id="Page-1" stroke="none" stroke-width="1" fill="none" fill-rule="evenodd">
        <g id="English_pattern_playing_cards_deck" transform="translate(-1560.000000, -571.000000)" fill-rule="nonzero">
            <g id="5-H" transform="translate(1560.000000, 570.637818)">
                <rect id="rect6472-58" stroke="#000000" stroke-width="0.99999976" fill="#FFFFFF" x="0.5" y="0.86218" width="359" height="539" rx="29.944447"></rect>
                <path d="M179,245.36218 C179,234.31649 173.28427,225.36218 165,225.36218 C156.71573,225.36218 150,234.31649 150,245.36218 C150.0349,246.31777 150.0182,247.25337 150,248.17468 C150,255.47316 152.67685,262.55152 155,269.17468 C157.38903,275.98564 160.83357,281.95535 164.0625,288.04968 C169.06373,297.48908 180,315.36218 180,315.36218 C180,315.36218 190.93627,297.48908 195.9375,288.04968 C199.16643,281.95535 202.61097,275.98564 205,269.17468 C207.32315,262.55152 210,255.47316 210,248.17468 C209.9716,247.20028 209.9814,246.26006 210,245.36218 C210,234.31649 203.28427,225.36218 195,225.36218 C186.71573,225.36218 181,234.31649 181,245.36218 L179,245.36218 Z" id="path3126-1-6" fill="#FF5555"></path>
                <path d="M20,30.36208 L20,45.36208 L20,50.36208 L30,50.36208 C32.77,50.36208 35.00001,52.59207 35.00001,55.36212 L35.00001,70.36208 C35.00001,73.13209 32.77,75.36208 30,75.36208 C27.23,75.36208 25,73.13209 25,70.36208 L25,65.36208 L20,65.36208 L20,70.36208 C20,75.90208 24.46,80.36208 30,80.36208 C35.54001,80.36208 40,75.90208 40,70.36208 L40,55.36212 C40,49.82207 35.54001,45.36208 30,45.36208 L25,45.36208 L25,35.36208 L30,35.36208 L40,35.36208 L40,30.36208 L30,30.36208 L25,30.36208 L20,30.36208 Z" id="rect3163-6-0-0-2" fill="#FF5555"></path>
                <path d="M340,510.3622 L340,495.3622 L340,490.3622 L330,490.3622 C327.23,490.3622 325,488.1322 325,485.36214 L325,470.36212 C325,467.59212 327.23,465.36212 330,465.36212 C332.77,465.36212 335,467.59212 335,470.36212 L335,475.36212 L340,475.36212 L340,470.36212 C340,464.82212 335.54,460.36212 330,460.36212 C324.45999,460.36212 320,464.82212 320,470.36212 L320,485.36214 C320,490.9022 324.45999,495.3622 330,495.3622 L335,495.3622 L335,505.3622 L330,505.3622 L320,505.3622 L320,510.3622 L330,510.3622 L335,510.3622 L340,510.3622 Z" id="rect3163-6-0-0-2-4" fill="#FF5555"></path>
                <path d="M89,63.36218 C89,52.31649 83.28427,45.36218 75,45.36218 C66.71573,45.36218 60,54.31649 60,65.36218 C60.0349,66.31777 60.0182,67.25337 60,68.17468 C60,75.47316 62.67685,82.55152 65,89.17468 C67.38903,95.98564 70.83357,101.95535 74.0625,108.04968 C79.06373,117.48908 90,135.36218 90,135.36218 C90,135.36218 100.93627,117.48908 105.9375,108.04968 C109.16643,101.95535 112.61097,95.98564 115,89.17468 C117.32315,82.55152 120,75.47316 120,68.17468 C119.9716,67.20028 119.9814,66.26006 120,65.36218 C120,54.31649 113.28427,45.36218 105,45.36218 C96.71573,45.36218 91,52.31649 91,63.36218 C91,65.36218 89,65.36218 89,63.36218 Z" id="path3126-2" fill="#FF5555"></path>
                <path d="M269,63.36218 C269,52.31649 263.28427,45.36218 255,45.36218 C246.71573,45.36218 240,54.31649 240,65.36218 C240.0349,66.31777 240.0182,67.25337 240,68.17468 C240,75.47316 242.67685,82.55152 245,89.17468 C247.38903,95.98564 250.83357,101.95535 254.0625,108.04968 C259.06373,117.48908 270,135.36218 270,135.36218 C270,135.36218 280.93627,117.48908 285.9375,108.04968 C289.16643,101.95535 292.61097,95.98564 295,89.17468 C297.32315,82.55152 300,75.47316 300,68.17468 C299.9716,67.20028 299.9814,66.26006 300,65.36218 C300,54.31649 293.28427,45.36218 285,45.36218 C276.71573,45.36218 271,52.31649 271,63.36218 C271,65.36218 269,65.36218 269,63.36218 Z" id="path3126-17-6" fill="#FF5555"></path>
                <path d="M179,243.36218 C179,232.31649 173.28427,225.36218 165,225.36218 C156.71573,225.36218 150,234.31649 150,245.36218 C150.0349,246.31777 150.0182,247.25337 150,248.17468 C150,255.47316 152.67685,262.55152 155,269.17468 C157.38903,275.98564 160.83357,281.95535 164.0625,288.04968 C169.06373,297.48908 180,315.36218 180,315.36218 C180,315.36218 190.93627,297.48908 195.9375,288.04968 C199.16643,281.95535 202.61097,275.98564 205,269.17468 C207.32315,262.55152 210,255.47316 210,248.17468 C209.9716,247.20028 209.9814,246.26006 210,245.36218 C210,234.31649 203.28427,225.36218 195,225.36218 C186.71573,225.36218 181,232.31649 181,243.36218 C181,245.36218 179,245.36218 179,243.36218 Z" id="path3126-4-5" fill="#FF5555"></path>
                <path d="M89,477.3622 C89,488.4079 83.28427,495.3622 75,495.3622 C66.71573,495.3622 60,486.40789 60,475.3622 C60.0349,474.40661 60.0182,473.47101 60,472.5497 C60,465.25122 62.67685,458.17286 65,451.5497 C67.38903,444.73874 70.83357,438.76903 74.0625,432.6747 C79.06373,423.2353 90,405.36218 90,405.36218 C90,405.36218 100.93627,423.2353 105.9375,432.6747 C109.16643,438.76903 112.61097,444.73874 115,451.5497 C117.32315,458.17286 120,465.25122 120,472.5497 C119.9716,473.5241 119.9814,474.46432 120,475.3622 C120,486.40789 113.28427,495.3622 105,495.3622 C96.71573,495.3622 91,488.4079 91,477.3622 C91,475.3622 89,475.3622 89,477.3622 L89,477.3622 Z" id="path3126-0-3" fill="#FF5555"></path>
                <path d="M269,477.3622 C269,488.4079 263.28427,495.3622 255,495.3622 C246.71573,495.3622 240,486.40789 240,475.3622 C240.0349,474.40661 240.0182,473.47101 240,472.5497 C240,465.25122 242.67685,458.17286 245,451.5497 C247.38903,444.73874 250.83357,438.76903 254.0625,432.6747 C259.06373,423.2353 270,405.36218 270,405.36218 C270,405.36218 280.93627,423.2353 285.9375,432.6747 C289.16643,438.76903 292.61097,444.73874 295,451.5497 C297.32315,458.17286 300,465.25122 300,472.5497 C299.9716,473.5241 299.9814,474.46432 300,475.3622 C300,486.40789 293.28427,495.3622 285,495.3622 C276.71573,495.3622 271,488.4079 271,477.3622 C271,475.3622 269,475.3622 269,477.3622 L269,477.3622 Z" id="path3126-9-92" fill="#FF5555"></path>
                <path d="M29.5,99.36218 C29.5,93.83933 26.642135,90.36218 22.5,90.36218 C18.357865,90.36218 15,94.83933 15,100.36218 C15.01745,100.83998 15.0091,101.30777 15,101.76843 C15,105.41767 16.338425,108.95685 17.5,112.26843 C18.694515,115.67391 20.416785,118.65877 22.03125,121.70593 C24.531865,126.42563 30,135.36218 30,135.36218 C30,135.36218 35.468135,126.42563 37.96875,121.70593 C39.583215,118.65877 41.305485,115.67391 42.5,112.26843 C43.661575,108.95685 45,105.41767 45,101.76843 C44.9858,101.28123 44.9907,100.81112 45,100.36218 C45,94.83933 41.642135,90.36218 37.5,90.36218 C33.357865,90.36218 30.5,93.83933 30.5,99.36218 C30.5,100.36218 29.5,100.36218 29.5,99.36218 Z" id="path3126-1-4-4" fill="#FF5555"></path>
                <path d="M329.5,441.36218 C329.5,446.88503 326.64213,450.36218 322.5,450.36218 C318.35786,450.36218 315,445.88503 315,440.36218 C315.0174,439.88438 315.009,439.41659 315,438.95593 C315,435.30669 316.33842,431.76751 317.5,428.45593 C318.69452,425.05045 320.41678,422.06559 322.03125,419.01843 C324.53186,414.29873 330,405.36218 330,405.36218 C330,405.36218 335.46814,414.29873 337.96875,419.01843 C339.58321,422.06559 341.30548,425.05045 342.5,428.45593 C343.66157,431.76751 345,435.30669 345,438.95593 C344.9858,439.44313 344.991,439.91324 345,440.36218 C345,445.88503 341.64213,450.36218 337.5,450.36218 C333.35786,450.36218 330.5,446.88503 330.5,441.36218 C330.5,440.36218 329.5,440.36218 329.5,441.36218 Z" id="path3126-1-8" fill="#FF5555"></path>
            </g>
        </g>
    </g>
</svg>

<svg width="360" height="540" xmlns="http://www.w3.org/2000/svg"><g transform="translate(0 -.362)" fill-rule="nonzero" fill="none"><rect stroke="#000" fill="#FFF" x=".5" y=".862" width="359" height="539" rx="29.944"/><path d="M179 245.362c0-11.046-5.716-20-14-20-8.284 0-15 8.954-15 20 .035.956.018 1.891 0 2.813 0 7.298 2.677 14.377 5 21 2.389 6.81 5.834 12.78 9.063 18.875 5 9.44 15.937 27.312 15.937 27.312s10.936-17.873 15.938-27.312c3.228-6.095 6.673-12.064 9.062-18.875 2.323-6.623 5-13.702 5-21a56.086 56.086 0 010-2.813c0-11.046-6.716-20-15-20-8.284 0-14 8.954-14 20h-2zM20 30.362v20h10c2.77 0 5 2.23 5 5v15c0 2.77-2.23 5-5 5s-5-2.23-5-5v-5h-5v5c0 5.54 4.46 10 10 10s10-4.46 10-10v-15c0-5.54-4.46-10-10-10h-5v-10h15v-5H20zM340 510.362v-20h-10c-2.77 0-5-2.23-5-5v-15c0-2.77 2.23-5 5-5s5 2.23 5 5v5h5v-5c0-5.54-4.46-10-10-10s-10 4.46-10 10v15c0 5.54 4.46 10 10 10h5v10h-15v5h20zM89 63.362c0-11.046-5.716-18-14-18-8.284 0-15 8.954-15 20 .035.956.018 1.891 0 2.813 0 7.298 2.677 14.377 5 21 2.389 6.81 5.834 12.78 9.063 18.875 5 9.44 15.937 27.312 15.937 27.312s10.936-17.873 15.938-27.312c3.228-6.095 6.673-12.064 9.062-18.875 2.323-6.623 5-13.702 5-21a56.086 56.086 0 010-2.813c0-11.046-6.716-20-15-20-8.284 0-14 6.954-14 18 0 2-2 2-2 0zM269 63.362c0-11.046-5.716-18-14-18-8.284 0-15 8.954-15 20 .035.956.018 1.891 0 2.813 0 7.298 2.677 14.377 5 21 2.389 6.81 5.834 12.78 9.063 18.875 5 9.44 15.937 27.312 15.937 27.312s10.936-17.873 15.938-27.312c3.228-6.095 6.673-12.064 9.062-18.875 2.323-6.623 5-13.702 5-21a56.086 56.086 0 010-2.813c0-11.046-6.716-20-15-20-8.284 0-14 6.954-14 18 0 2-2 2-2 0z" fill="#F55"/><path d="M179 243.362c0-11.046-5.716-18-14-18-8.284 0-15 8.954-15 20 .035.956.018 1.891 0 2.813 0 7.298 2.677 14.377 5 21 2.389 6.81 5.834 12.78 9.063 18.875 5 9.44 15.937 27.312 15.937 27.312s10.936-17.873 15.938-27.312c3.228-6.095 6.673-12.064 9.062-18.875 2.323-6.623 5-13.702 5-21a56.086 56.086 0 010-2.813c0-11.046-6.716-20-15-20-8.284 0-14 6.954-14 18 0 2-2 2-2 0zM89 477.362c0 11.046-5.716 18-14 18-8.284 0-15-8.954-15-20 .035-.955.018-1.891 0-2.812 0-7.299 2.677-14.377 5-21 2.389-6.811 5.834-12.781 9.063-18.875 5-9.44 15.937-27.313 15.937-27.313s10.936 17.873 15.938 27.313c3.228 6.094 6.673 12.064 9.062 18.875 2.323 6.623 5 13.701 5 21a56.086 56.086 0 000 2.812c0 11.046-6.716 20-15 20-8.284 0-14-6.954-14-18 0-2-2-2-2 0zM269 477.362c0 11.046-5.716 18-14 18-8.284 0-15-8.954-15-20 .035-.955.018-1.891 0-2.812 0-7.299 2.677-14.377 5-21 2.389-6.811 5.834-12.781 9.063-18.875 5-9.44 15.937-27.313 15.937-27.313s10.936 17.873 15.938 27.313c3.228 6.094 6.673 12.064 9.062 18.875 2.323 6.623 5 13.701 5 21a56.086 56.086 0 000 2.812c0 11.046-6.716 20-15 20-8.284 0-14-6.954-14-18 0-2-2-2-2 0zM29.5 99.362c0-5.523-2.858-9-7-9-4.142 0-7.5 4.477-7.5 10 .017.478.01.946 0 1.406 0 3.65 1.338 7.189 2.5 10.5 1.195 3.406 2.917 6.39 4.531 9.438 2.5 4.72 7.969 13.656 7.969 13.656s5.468-8.936 7.969-13.656c1.614-3.047 3.336-6.032 4.531-9.438 1.162-3.311 2.5-6.85 2.5-10.5-.014-.487-.01-.957 0-1.406 0-5.523-3.358-10-7.5-10-4.142 0-7 3.477-7 9 0 1-1 1-1 0zM329.5 441.362c0 5.523-2.858 9-7 9-4.142 0-7.5-4.477-7.5-10 .017-.478.009-.945 0-1.406 0-3.65 1.338-7.188 2.5-10.5 1.195-3.406 2.917-6.39 4.531-9.438 2.5-4.72 7.969-13.656 7.969-13.656s5.468 8.937 7.969 13.656c1.614 3.048 3.336 6.032 4.531 9.438 1.162 3.312 2.5 6.85 2.5 10.5-.014.487-.009.957 0 1.406 0 5.523-3.358 10-7.5 10-4.142 0-7-3.477-7-9 0-1-1-1-1 0z" fill="#F55"/></g></svg>
